public/assets/heat-icon.svg

<svg xmlns="http://www.w3.org/2000/svg" width="50" height="50" fill="none" viewBox="0 0 50 50"><path fill="#a5c352" d="M37.26 32.86C35.59 41.89 29.85 49 20.28 49 11.56 49 5.51 41.31 4.6 32.99c-.88-7.98 3.27-16.77 8.6-20.43-.78 2.67.85 10.66 4.74 9.02 4.95-2.09 1.87-12.29 3.33-16.21.65-1.75 1.75-3.43 2.97-4.36-.26 5.03 7.75 13.86 8.83 15.56 2.74 4.35 5.18 10.98 4.2 16.3z"/><path fill="#006d68" d="M45.3 32.86C43.63 41.89 37.89 49 28.32 49c-8.72 0-14.77-7.69-15.68-16.01-.88-7.98 3.27-16.77 8.6-20.43-.78 2.67.85 10.66 4.74 9.02 4.95-2.09 1.87-12.29 3.33-16.21.65-1.75 1.75-3.43 2.97-4.36-.26 5.03 7.75 13.86 8.83 15.56 2.74 4.35 5.18 10.98 4.2 16.3z"/><path fill="#fff" stroke="#fff" stroke-linecap="round" stroke-linejoin="round" stroke-width=".59" d="M26.94 41.87c2.91.23 5.57-1.75 7.12-4.06 2.11-3.13 1.65-7.15.81-10.65-.45-1.87-1.31-3.49-2.07-5.2-.11-.25-.46-.18-.48.09-.07 1.39-.59 2.7-1.19 4-1.06 2.28-2.71 3.93-4.84 5.15-.82.48-1.66.96-2.33 1.63-2.94 2.96-1.42 8.69 2.97 9.03z"/></svg>

<svg width="50" height="50" viewBox="0 0 50 50" fill="none" xmlns="http://www.w3.org/2000/svg">
<path d="M37.26 32.86C35.59 41.89 29.85 49 20.28 49C11.56 49 5.50999 41.31 4.59999 32.99C3.71999 25.01 7.86999 16.22 13.2 12.56C12.42 15.23 14.05 23.22 17.94 21.58C22.89 19.49 19.81 9.29001 21.27 5.37001C21.92 3.62001 23.02 1.94001 24.24 1.01001C23.98 6.04001 31.99 14.87 33.07 16.57C35.81 20.92 38.25 27.55 37.27 32.87L37.26 32.86Z" fill="#A5C352"/>
<path d="M45.3 32.86C43.63 41.89 37.89 49 28.32 49C19.6 49 13.55 41.31 12.64 32.99C11.76 25.01 15.91 16.22 21.24 12.56C20.46 15.23 22.09 23.22 25.98 21.58C30.93 19.49 27.85 9.29001 29.31 5.37001C29.96 3.62001 31.06 1.94001 32.28 1.01001C32.02 6.04001 40.03 14.87 41.11 16.57C43.85 20.92 46.29 27.55 45.31 32.87L45.3 32.86Z" fill="#006D68"/>
<path d="M26.94 41.87C29.85 42.1 32.51 40.12 34.06 37.81C36.17 34.68 35.71 30.66 34.87 27.16C34.42 25.29 33.56 23.67 32.8 21.96C32.69 21.71 32.34 21.78 32.32 22.05C32.25 23.44 31.73 24.75 31.13 26.05C30.07 28.33 28.42 29.98 26.29 31.2C25.47 31.68 24.63 32.16 23.96 32.83C21.02 35.79 22.54 41.52 26.93 41.86L26.94 41.87Z" fill="white" stroke="white" stroke-width="0.59" stroke-linecap="round" stroke-linejoin="round"/>
</svg>
